public/images/apple.svg

<svg width="90" height="90" viewBox="0 0 90 90" fill="none" xmlns="http://www.w3.org/2000/svg">
<path d="M43.5896 27.0825C40.3046 27.0825 35.2196 23.3475 29.8646 23.4825C22.7996 23.5725 16.3196 27.5775 12.6746 33.9225C5.33962 46.6575 10.7846 65.4675 17.9396 75.8175C21.4496 80.8575 25.5896 86.5275 31.0796 86.3475C36.3446 86.1225 38.3246 82.9275 44.7146 82.9275C51.0596 82.9275 52.8596 86.3475 58.4396 86.2125C64.1096 86.1225 67.7096 81.0825 71.1746 75.9975C75.1796 70.1475 76.8446 64.4775 76.9346 64.1625C76.7996 64.1175 65.9096 59.9325 65.7746 47.3325C65.6846 36.8025 74.3696 31.7625 74.7746 31.5375C69.8246 24.2925 62.2196 23.4825 59.5646 23.3025C52.6346 22.7625 46.8296 27.0825 43.5896 27.0825ZM55.2896 16.4625C58.2146 12.9525 60.1496 8.0475 59.6096 3.1875C55.4246 3.3675 50.3846 5.9775 47.3696 9.4875C44.6696 12.5925 42.3296 17.5875 42.9596 22.3575C47.5946 22.7175 52.3646 19.9725 55.2896 16.4625Z" fill="black"/>
</svg>

<svg fill="none" height="90" viewBox="0 0 90 90" width="90" xmlns="http://www.w3.org/2000/svg"><path d="m43.5896 27.0825c-3.285 0-8.37-3.735-13.725-3.6-7.065.09-13.545 4.095-17.19 10.44-7.33498 12.735-1.89 31.545 5.265 41.895 3.51 5.04 7.65 10.71 13.14 10.53 5.265-.225 7.245-3.42 13.635-3.42 6.345 0 8.145 3.42 13.725 3.285 5.67-.09 9.27-5.13 12.735-10.215 4.005-5.85 5.67-11.52 5.76-11.835-.135-.045-11.025-4.23-11.16-16.83-.09-10.53 8.595-15.57 9-15.795-4.95-7.245-12.555-8.055-15.21-8.235-6.93-.54-12.735 3.78-15.975 3.78zm11.7-10.62c2.925-3.51 4.86-8.415 4.32-13.275-4.185.18-9.225 2.79-12.24 6.3-2.7 3.105-5.04 8.1-4.41 12.87 4.635.36 9.405-2.385 12.33-5.895z" fill="#000"/></svg>
